public/management.svg

<?xml version="1.0" encoding="UTF-8" standalone="no"?>
<!DOCTYPE svg PUBLIC "-//W3C//DTD SVG 1.1//EN" "http://www.w3.org/Graphics/SVG/1.1/DTD/svg11.dtd">
<!-- Created with Vectornator (http://vectornator.io/) -->
<svg height="100%" stroke-miterlimit="10" style="fill-rule:nonzero;clip-rule:evenodd;stroke-linecap:round;stroke-linejoin:round;" version="1.1" viewBox="0 0 192 192" width="100%" xml:space="preserve" xmlns="http://www.w3.org/2000/svg" xmlns:vectornator="http://vectornator.io" xmlns:xlink="http://www.w3.org/1999/xlink">
<defs/>
<g id="Untitled" vectornator:layerName="Untitled">
<g opacity="1" vectornator:layerName="g">
<path d="M36.5226 165.334C6.15812 138.938-3.51012 95.8609 12.6611 59.0197C28.8359 22.1786 67.0916 0.139134 107.076 4.62638C147.064 9.11013 179.488 39.0824 187.095 78.5958M187.02 113.413C181.983 139.57 165.845 162.256 142.788 175.594C119.73 188.934 92.0182 191.615 66.8308 182.942" fill="none" opacity="1" stroke="#000000" stroke-linecap="round" stroke-linejoin="miter" stroke-width="7.5" vectornator:layerName="path"/>
</g>
<path d="M72.0731 46.6619C65.4292 46.666 60.0567 52.0698 60.0567 58.7137L60.0567 121.27L56.2751 121.27C49.6344 121.27 44.2586 126.646 44.2586 133.286C44.2586 139.927 49.6344 145.338 56.2751 145.338L119.927 145.338C126.562 145.33 131.935 139.957 131.943 133.322L131.943 70.7301L135.725 70.7301C142.363 70.7219 147.737 65.3518 147.741 58.7137C147.737 52.0727 142.366 46.666 135.725 46.6619L72.0731 46.6619ZM72.0731 54.932L124.274 54.932C123.877 56.147 123.671 57.4356 123.673 58.7137L123.708 133.322C123.704 135.159 122.376 136.697 120.563 136.997C118.75 137.298 116.99 136.261 116.393 134.523C115.796 132.785 116.545 130.876 118.16 129.999C119.855 128.848 120.578 126.734 119.998 124.769C119.501 122.708 117.664 121.246 115.544 121.27L68.3268 121.27L68.3268 58.7137C68.3214 57.5578 68.8282 56.4546 69.7405 55.7449L69.7759 55.7449C70.4344 55.227 71.2353 54.9306 72.0731 54.932ZM135.725 54.932C137.802 54.9362 139.467 56.637 139.471 58.7137C139.467 60.7904 137.802 62.4559 135.725 62.46L131.943 62.46L131.943 58.7137C131.938 57.5542 132.476 56.4554 133.392 55.7449C134.05 55.2249 134.887 54.9282 135.725 54.932ZM56.3104 129.54L108.511 129.54C107.705 131.984 107.705 134.624 108.511 137.068L56.3104 137.068L56.2751 137.068C54.2131 137.049 52.5288 135.388 52.5288 133.322C52.5288 131.243 54.232 129.54 56.3104 129.54Z" fill="#000000" fill-rule="nonzero" opacity="1" stroke="none" vectornator:layerName="Curve 1"/>
<path d="M78.583 76.0946C78.583 74.5997 79.7948 73.3879 81.2897 73.3879L110.71 73.3879C112.205 73.3879 113.417 74.5997 113.417 76.0946L113.417 76.9908C113.417 78.4857 112.205 79.6975 110.71 79.6975L81.2897 79.6975C79.7948 79.6975 78.583 78.4857 78.583 76.9908L78.583 76.0946Z" fill="#000000" fill-rule="nonzero" opacity="1" stroke="none" vectornator:layerName="Rectangle 1"/>
<path d="M78.583 88.4339C78.583 86.9512 79.7849 85.7493 81.2675 85.7493L110.447 85.7493C111.93 85.7493 113.131 86.9512 113.131 88.4339L113.131 89.3227C113.131 90.8053 111.93 92.0073 110.447 92.0073L81.2675 92.0073C79.7849 92.0073 78.583 90.8053 78.583 89.3227L78.583 88.4339Z" fill="#000000" fill-rule="nonzero" opacity="1" stroke="none" vectornator:layerName="Rectangle 2"/>
<path d="M78.583 101.309C78.583 99.8145 79.7948 98.6026 81.2897 98.6026L110.71 98.6026C112.205 98.6026 113.417 99.8145 113.417 101.309L113.417 102.206C113.417 103.7 112.205 104.912 110.71 104.912L81.2897 104.912C79.7948 104.912 78.583 103.7 78.583 102.206L78.583 101.309Z" fill="#000000" fill-rule="nonzero" opacity="1" stroke="none" vectornator:layerName="Rectangle 3"/>
</g>
</svg>

<svg xmlns="http://www.w3.org/2000/svg" xmlns:vectornator="http://vectornator.io" xml:space="preserve" stroke-miterlimit="10" style="fill-rule:nonzero;clip-rule:evenodd;stroke-linecap:round;stroke-linejoin:round" viewBox="0 0 192 192"><g vectornator:layerName="Untitled"><g vectornator:layerName="g"><path vectornator:layerName="path" fill="none" stroke="#000" stroke-linejoin="miter" stroke-width="7.5" d="M36.523 165.334C6.158 138.938-3.51 95.861 12.66 59.02 28.836 22.179 67.091.14 107.076 4.626c39.988 4.484 72.412 34.456 80.019 73.97m-.075 34.817a91.92 91.92 0 0 1-120.19 69.529"/></g><path vectornator:layerName="Curve 1" d="M72.073 46.662c-6.644.004-12.016 5.408-12.016 12.052v62.556h-3.782c-6.64 0-12.016 5.376-12.016 12.016 0 6.641 5.375 12.052 12.016 12.052h63.652c6.635-.008 12.008-5.381 12.016-12.016V70.73h3.782c6.638-.008 12.012-5.378 12.016-12.016-.004-6.641-5.375-12.048-12.016-12.052H72.073Zm0 8.27h52.201a12.175 12.175 0 0 0-.601 3.782l.035 74.608a3.73 3.73 0 0 1-3.145 3.675 3.746 3.746 0 0 1-4.17-2.474 3.758 3.758 0 0 1 1.767-4.524c1.695-1.151 2.418-3.265 1.838-5.23-.497-2.061-2.334-3.523-4.454-3.499H68.327V58.714c-.006-1.156.501-2.26 1.413-2.97h.036a3.706 3.706 0 0 1 2.297-.812Zm63.652 0c2.077.004 3.742 1.705 3.746 3.782a3.741 3.741 0 0 1-3.746 3.746h-3.782v-3.746a3.743 3.743 0 0 1 1.449-2.97 3.777 3.777 0 0 1 2.333-.812ZM56.31 129.54h52.201a12.02 12.02 0 0 0 0 7.528H56.275c-2.062-.019-3.746-1.68-3.746-3.746a3.795 3.795 0 0 1 3.781-3.782Z"/><path vectornator:layerName="Rectangle 1" d="M78.583 76.095a2.707 2.707 0 0 1 2.707-2.707h29.42a2.707 2.707 0 0 1 2.707 2.707v.896a2.707 2.707 0 0 1-2.707 2.707H81.29a2.707 2.707 0 0 1-2.707-2.707v-.896Z"/><path vectornator:layerName="Rectangle 2" d="M78.583 88.434a2.685 2.685 0 0 1 2.684-2.685h29.18a2.684 2.684 0 0 1 2.684 2.685v.889a2.684 2.684 0 0 1-2.684 2.684h-29.18a2.685 2.685 0 0 1-2.684-2.684v-.89Z"/><path vectornator:layerName="Rectangle 3" d="M78.583 101.309a2.707 2.707 0 0 1 2.707-2.706h29.42a2.707 2.707 0 0 1 2.707 2.706v.897a2.707 2.707 0 0 1-2.707 2.706H81.29a2.707 2.707 0 0 1-2.707-2.706v-.897Z"/></g></svg>
